X:19
T:Derrire chez nous
R:Bourre
N:
D:Voir Maluzerne
O:France
N:tagafolk.abc
Z:<anamnese@caramail.com> -- http://anamnese.fr.st
M:2/4
L:1/8
Q:1/4=140
K:F
G2GF | G3 A| B>AGF | G2 DE | F2FE | F3 G | A>GFE |1 D4 :|2 D3 G |:
K:Bb
B2 e2 | d3 c | A>c BA | B2 (3A/B/A/ G |
B2 e2 | d3 c | A>c BA |1 G3 G :|2 G4 |]
W:Derrire chez nous, il y a une montagne
W:Moi et mon amant [ma matresse] la montons bien souvent
W:En la montant grands dieux qu'il y a de peines
W:En descendant quel soulagement !
